src/app-store.svg

<svg xmlns="http://www.w3.org/2000/svg" class="dibsvg-svg dibsvg-app-store" viewBox="0 -47 135 135">
    <path fill="#404040" d="M130.197 40H4.729A4.74 4.74 0 0 1 0 35.267V4.726A4.733 4.733 0 0 1 4.729 0h125.468C132.803 0 135 2.12 135 4.726v30.541c0 2.605-2.197 4.733-4.803 4.733z"/>
    <path fill="#404040" d="M134.032 35.268a3.83 3.83 0 0 1-3.834 3.83H4.729a3.835 3.835 0 0 1-3.839-3.83V4.725A3.84 3.84 0 0 1 4.729.89h125.468a3.834 3.834 0 0 1 3.834 3.835l.001 30.543z"/>
    <g fill="#000000" transform="translate(12.000000, 6.000000)">
        <path d="M18.128 13.784c-.029-3.223 2.639-4.791 2.761-4.864-1.511-2.203-3.853-2.504-4.676-2.528-1.967-.207-3.875 1.177-4.877 1.177-1.022 0-2.565-1.157-4.228-1.123-2.14.033-4.142 1.272-5.24 3.196-2.266 3.923-.576 9.688 1.595 12.859 1.086 1.553 2.355 3.287 4.016 3.226 1.625-.067 2.232-1.036 4.193-1.036 1.943 0 2.513 1.036 4.207.997 1.744-.028 2.842-1.56 3.89-3.127 1.255-1.78 1.759-3.533 1.779-3.623-.041-.014-3.387-1.291-3.42-5.154z"/>
        <path d="M14.928 4.306c.874-1.093 1.472-2.58 1.306-4.089-1.265.056-2.847.875-3.758 1.944-.806.942-1.526 2.486-1.34 3.938 1.421.106 2.88-.717 3.792-1.793z"/>
    </g>
    <g fill="#000000" transform="translate(42.000000, 18.000000)">
        <path d="M11.645 13.504H9.374L8.13 9.595H3.806l-1.185 3.909H.41L4.694.196H7.34l4.305 13.308zm-3.89-5.549L6.63 4.48c-.119-.355-.342-1.191-.671-2.507h-.04a96.75 96.75 0 0 1-.632 2.507L4.182 7.955h3.573z"/>
        <path d="M22.662 8.588c0 1.632-.441 2.922-1.323 3.869-.79.843-1.771 1.264-2.942 1.264-1.264 0-2.172-.454-2.725-1.362h-.04v5.055H13.5V7.067c0-1.026-.027-2.079-.079-3.159h1.875l.119 1.521h.04c.711-1.146 1.79-1.718 3.238-1.718 1.132 0 2.077.447 2.833 1.342.758.896 1.136 2.074 1.136 3.535zm-2.172.078c0-.934-.21-1.704-.632-2.31-.461-.632-1.08-.948-1.856-.948-.526 0-1.004.176-1.431.523-.428.35-.708.807-.839 1.373-.066.264-.099.48-.099.65v1.6c0 .698.214 1.287.642 1.768.428.481.984.721 1.668.721.803 0 1.428-.31 1.875-.928.448-.619.672-1.435.672-2.449z"/>
        <path d="M33.699 8.588c0 1.632-.441 2.922-1.324 3.869-.789.843-1.77 1.264-2.941 1.264-1.264 0-2.172-.454-2.724-1.362h-.04v5.055h-2.132V7.067c0-1.026-.027-2.079-.079-3.159h1.875l.119 1.521h.04c.71-1.146 1.789-1.718 3.238-1.718 1.131 0 2.076.447 2.834 1.342.755.896 1.134 2.074 1.134 3.535zm-2.172.078c0-.934-.211-1.704-.633-2.31-.461-.632-1.078-.948-1.855-.948a2.22 2.22 0 0 0-1.432.523c-.428.35-.707.807-.838 1.373-.065.264-.099.48-.099.65v1.6c0 .698.214 1.287.64 1.768.428.48.984.721 1.67.721.803 0 1.428-.31 1.875-.928.448-.619.672-1.435.672-2.449z"/>
        <path d="M46.039 9.772c0 1.132-.393 2.053-1.182 2.764-.867.777-2.074 1.165-3.625 1.165-1.432 0-2.58-.276-3.449-.829l.494-1.777c.936.566 1.963.85 3.082.85.803 0 1.428-.182 1.877-.544.447-.362.67-.848.67-1.454 0-.54-.184-.995-.553-1.364-.367-.369-.98-.712-1.836-1.029-2.33-.869-3.494-2.142-3.494-3.816 0-1.094.408-1.991 1.225-2.689.814-.699 1.9-1.048 3.258-1.048 1.211 0 2.217.211 3.02.632l-.533 1.738c-.75-.408-1.598-.612-2.547-.612-.75 0-1.336.185-1.756.553a1.58 1.58 0 0 0-.533 1.205c0 .526.203.961.611 1.303.355.316 1 .658 1.936 1.027 1.145.461 1.986 1 2.527 1.618.539.616.808 1.387.808 2.307z"/>
        <path d="M53.088 5.508h-2.35v4.659c0 1.185.414 1.777 1.244 1.777.381 0 .697-.033.947-.099l.059 1.619c-.42.157-.973.236-1.658.236-.842 0-1.5-.257-1.975-.77-.473-.514-.711-1.376-.711-2.587V5.506h-1.4v-1.6h1.4V2.149l2.094-.632v2.389h2.35v1.602z"/>
        <path d="M63.691 8.627c0 1.475-.422 2.686-1.264 3.633-.883.975-2.055 1.461-3.516 1.461-1.408 0-2.529-.467-3.365-1.401-.836-.934-1.254-2.113-1.254-3.534 0-1.487.43-2.705 1.293-3.652.861-.948 2.023-1.422 3.484-1.422 1.408 0 2.541.467 3.396 1.402.818.907 1.226 2.078 1.226 3.513zm-2.212.069c0-.885-.189-1.644-.572-2.277-.447-.766-1.086-1.148-1.914-1.148-.857 0-1.508.383-1.955 1.148-.383.634-.572 1.405-.572 2.317 0 .885.189 1.644.572 2.276.461.766 1.105 1.148 1.936 1.148.814 0 1.453-.39 1.914-1.168.393-.645.591-1.412.591-2.296z"/>
        <path d="M70.621 5.783a3.702 3.702 0 0 0-.672-.059c-.75 0-1.33.283-1.738.85-.355.5-.533 1.132-.533 1.895v5.035h-2.131l.02-6.574c0-1.106-.027-2.113-.08-3.021h1.857l.078 1.836h.059c.225-.631.58-1.139 1.066-1.52a2.578 2.578 0 0 1 1.541-.514c.197 0 .375.014.533.039v2.033z"/>
        <path d="M80.156 8.252a5 5 0 0 1-.078.967h-6.396c.025.948.334 1.673.928 2.173.539.447 1.236.671 2.092.671.947 0 1.811-.151 2.588-.454l.334 1.48c-.908.396-1.98.593-3.217.593-1.488 0-2.656-.438-3.506-1.313-.848-.875-1.273-2.05-1.273-3.524 0-1.447.395-2.652 1.186-3.613.828-1.026 1.947-1.539 3.355-1.539 1.383 0 2.43.513 3.141 1.539.563.815.846 1.823.846 3.02zm-2.033-.553c.014-.632-.125-1.178-.414-1.639-.369-.593-.936-.889-1.699-.889-.697 0-1.264.289-1.697.869-.355.461-.566 1.014-.631 1.658h4.441v.001z"/>
    </g>
    <g fill="#000000" transform="translate(43.000000, 6.000000)">
        <path d="M6.05 4.009c0 1.177-.353 2.063-1.058 2.658-.653.549-1.581.824-2.783.824-.596 0-1.106-.026-1.533-.078V.982C1.233.892 1.833.846 2.481.846c1.145 0 2.008.249 2.59.747.652.563.979 1.368.979 2.416zm-1.105.029c0-.763-.202-1.348-.606-1.756-.404-.407-.994-.611-1.771-.611-.33 0-.611.022-.844.068v4.889c.129.02.365.029.708.029.802 0 1.421-.223 1.857-.669.436-.446.656-1.096.656-1.95z"/>
        <path d="M11.909 5.037c0 .725-.207 1.319-.621 1.785-.434.479-1.009.718-1.727.718-.692 0-1.243-.229-1.654-.689-.41-.459-.615-1.038-.615-1.736 0-.73.211-1.329.635-1.794.424-.465.994-.698 1.712-.698.692 0 1.248.229 1.669.688.4.446.601 1.022.601 1.726zm-1.087.034c0-.435-.094-.808-.281-1.119-.22-.376-.533-.564-.94-.564-.421 0-.741.188-.961.564-.188.311-.281.69-.281 1.138 0 .435.094.808.281 1.119.227.376.543.564.951.564.4 0 .714-.191.94-.574.194-.317.291-.693.291-1.128z"/>
        <path d="M19.765 2.719L18.29 7.433h-.96l-.611-2.047a15.32 15.32 0 0 1-.379-1.523h-.019a11.15 11.15 0 0 1-.379 1.523l-.649 2.047h-.971l-1.387-4.714h1.077l.533 2.241c.129.53.235 1.035.32 1.513h.019c.078-.394.207-.896.389-1.503l.669-2.25h.854l.641 2.202c.155.537.281 1.054.378 1.552h.029c.071-.485.178-1.002.32-1.552l.572-2.202h1.029v-.001z"/>
        <path d="M25.198 7.433H24.15v-2.7c0-.832-.316-1.248-.95-1.248a.946.946 0 0 0-.757.343 1.217 1.217 0 0 0-.291.808v2.796h-1.048V4.066c0-.414-.013-.863-.038-1.349h.921l.049.737h.029c.122-.229.304-.418.543-.569.284-.176.602-.265.95-.265.44 0 .806.142 1.097.427.362.349.543.87.543 1.562v2.824z"/>
        <path d="M28.088 7.433h-1.047V.556h1.047v6.877z"/>
        <path d="M34.258 5.037c0 .725-.207 1.319-.621 1.785-.434.479-1.01.718-1.727.718-.693 0-1.244-.229-1.654-.689-.41-.459-.615-1.038-.615-1.736 0-.73.211-1.329.635-1.794.424-.465.994-.698 1.711-.698.693 0 1.248.229 1.67.688.4.446.601 1.022.601 1.726zm-1.088.034c0-.435-.094-.808-.281-1.119-.219-.376-.533-.564-.939-.564-.422 0-.742.188-.961.564-.188.311-.281.69-.281 1.138 0 .435.094.808.281 1.119.227.376.543.564.951.564.4 0 .713-.191.939-.574.195-.317.291-.693.291-1.128z"/>
        <path d="M39.33 7.433h-.941l-.078-.543h-.029c-.322.433-.781.65-1.377.65-.445 0-.805-.143-1.076-.427a1.339 1.339 0 0 1-.369-.96c0-.576.24-1.015.723-1.319.482-.304 1.16-.453 2.033-.446V4.3c0-.621-.326-.931-.979-.931-.465 0-.875.117-1.229.349l-.213-.688c.438-.271.979-.407 1.617-.407 1.232 0 1.85.65 1.85 1.95v1.736c0 .471.023.846.068 1.124zm-1.088-1.62v-.727c-1.156-.02-1.734.297-1.734.95 0 .246.066.43.201.553a.733.733 0 0 0 .512.184c.23 0 .445-.073.641-.218a.893.893 0 0 0 .38-.742z"/>
        <path d="M45.285 7.433h-.93l-.049-.757h-.029c-.297.576-.803.864-1.514.864-.568 0-1.041-.223-1.416-.669-.375-.446-.562-1.025-.562-1.736 0-.763.203-1.381.611-1.853.395-.44.879-.66 1.455-.66.633 0 1.076.213 1.328.64h.02V.556h1.049v5.607c0 .459.012.882.037 1.27zm-1.086-1.988v-.786a1.194 1.194 0 0 0-.408-.965 1.03 1.03 0 0 0-.701-.257c-.391 0-.697.155-.922.466-.223.311-.336.708-.336 1.193 0 .466.107.844.322 1.135.227.31.533.465.916.465.344 0 .619-.129.828-.388.202-.239.301-.527.301-.863z"/>
        <path d="M54.248 5.037c0 .725-.207 1.319-.621 1.785-.434.479-1.008.718-1.727.718-.691 0-1.242-.229-1.654-.689-.41-.459-.615-1.038-.615-1.736 0-.73.211-1.329.635-1.794.424-.465.994-.698 1.713-.698.691 0 1.248.229 1.668.688.4.446.601 1.022.601 1.726zm-1.086.034c0-.435-.094-.808-.281-1.119-.221-.376-.533-.564-.941-.564-.42 0-.74.188-.961.564-.188.311-.281.69-.281 1.138 0 .435.094.808.281 1.119.227.376.543.564.951.564.4 0 .715-.191.941-.574.193-.317.291-.693.291-1.128z"/>
        <path d="M59.883 7.433h-1.047v-2.7c0-.832-.316-1.248-.951-1.248a.942.942 0 0 0-.756.343 1.212 1.212 0 0 0-.291.808v2.796h-1.049V4.066c0-.414-.012-.863-.037-1.349h.92l.049.737h.029a1.53 1.53 0 0 1 .543-.569c.285-.176.602-.265.951-.265.439 0 .805.142 1.096.427.363.349.543.87.543 1.562v2.824z"/>
        <path d="M66.936 3.504h-1.154v2.29c0 .582.205.873.611.873.188 0 .344-.016.467-.049l.027.795c-.207.078-.479.117-.814.117-.414 0-.736-.126-.969-.378-.234-.252-.35-.676-.35-1.271V3.504h-.689v-.785h.689v-.864l1.027-.31v1.173h1.154v.786h.001z"/>
        <path d="M72.484 7.433h-1.049v-2.68c0-.845-.316-1.268-.949-1.268-.486 0-.818.245-1 .735a1.317 1.317 0 0 0-.049.377v2.835H68.39V.556h1.047v2.841h.02c.33-.517.803-.775 1.416-.775.434 0 .793.142 1.078.427.355.355.533.883.533 1.581v2.803z"/>
        <path d="M78.207 4.853c0 .188-.014.346-.039.475h-3.143c.014.466.164.821.455 1.067.266.22.609.33 1.029.33.465 0 .889-.074 1.271-.223l.164.728c-.447.194-.973.291-1.582.291-.73 0-1.305-.215-1.721-.645-.418-.43-.625-1.007-.625-1.731 0-.711.193-1.303.582-1.775.406-.504.955-.756 1.648-.756.678 0 1.193.252 1.541.756.281.4.42.895.42 1.483zm-1-.271a1.411 1.411 0 0 0-.203-.805c-.182-.291-.459-.437-.834-.437a.995.995 0 0 0-.834.427 1.586 1.586 0 0 0-.311.815h2.182z"/>
    </g>
</svg>

<svg xmlns="http://www.w3.org/2000/svg" class="dibsvg-svg dibsvg-app-store" viewBox="0 -47 135 135">
    <path fill="#404040" d="M130.197,40 L4.729,40 C2.122,40 0,37.872 0,35.267 L0,4.726 C0,2.12 2.122,0 4.729,0 L130.197,0 C132.803,0 135,2.12 135,4.726 L135,35.267 C135,37.872 132.803,40 130.197,40 L130.197,40 L130.197,40 Z"/>
    <path fill="#404040" d="M134.032,35.268 C134.032,37.384 132.318,39.098 130.198,39.098 L4.729,39.098 C2.61,39.098 0.89,37.384 0.89,35.268 L0.89,4.725 C0.89,2.61 2.61,0.89 4.729,0.89 L130.197,0.89 C132.318,0.89 134.031,2.61 134.031,4.725 L134.032,35.268 L134.032,35.268 L134.032,35.268 Z"/>
    <g fill="#000000" transform="translate(12.000000, 6.000000)">
        <path d="M18.128,13.784 C18.099,10.561 20.767,8.993 20.889,8.92 C19.378,6.717 17.036,6.416 16.213,6.392 C14.246,6.185 12.338,7.569 11.336,7.569 C10.314,7.569 8.771,6.412 7.108,6.446 C4.968,6.479 2.966,7.718 1.868,9.642 C-0.398,13.565 1.292,19.33 3.463,22.501 C4.549,24.054 5.818,25.788 7.479,25.727 C9.104,25.66 9.711,24.691 11.672,24.691 C13.615,24.691 14.185,25.727 15.879,25.688 C17.623,25.66 18.721,24.128 19.769,22.561 C21.024,20.781 21.528,19.028 21.548,18.938 C21.507,18.924 18.161,17.647 18.128,13.784 L18.128,13.784 Z"/>
        <path d="M14.928,4.306 C15.802,3.213 16.4,1.726 16.234,0.217 C14.969,0.273 13.387,1.092 12.476,2.161 C11.67,3.103 10.95,4.647 11.136,6.099 C12.557,6.205 14.016,5.382 14.928,4.306 L14.928,4.306 Z"/>
    </g>
    <g fill="#000000" transform="translate(42.000000, 18.000000)">
        <path d="M11.645,13.504 L9.374,13.504 L8.13,9.595 L3.806,9.595 L2.621,13.504 L0.41,13.504 L4.694,0.196 L7.34,0.196 L11.645,13.504 L11.645,13.504 Z M7.755,7.955 L6.63,4.48 C6.511,4.125 6.288,3.289 5.959,1.973 L5.919,1.973 C5.788,2.539 5.577,3.375 5.287,4.48 L4.182,7.955 L7.755,7.955 L7.755,7.955 Z"/>
        <path d="M22.662,8.588 C22.662,10.22 22.221,11.51 21.339,12.457 C20.549,13.3 19.568,13.721 18.397,13.721 C17.133,13.721 16.225,13.267 15.672,12.359 L15.632,12.359 L15.632,17.414 L13.5,17.414 L13.5,7.067 C13.5,6.041 13.473,4.988 13.421,3.908 L15.296,3.908 L15.415,5.429 L15.455,5.429 C16.166,4.283 17.245,3.711 18.693,3.711 C19.825,3.711 20.77,4.158 21.526,5.053 C22.284,5.949 22.662,7.127 22.662,8.588 L22.662,8.588 Z M20.49,8.666 C20.49,7.732 20.28,6.962 19.858,6.356 C19.397,5.724 18.778,5.408 18.002,5.408 C17.476,5.408 16.998,5.584 16.571,5.931 C16.143,6.281 15.863,6.738 15.732,7.304 C15.666,7.568 15.633,7.784 15.633,7.954 L15.633,9.554 C15.633,10.252 15.847,10.841 16.275,11.322 C16.703,11.803 17.259,12.043 17.943,12.043 C18.746,12.043 19.371,11.733 19.818,11.115 C20.266,10.496 20.49,9.68 20.49,8.666 L20.49,8.666 Z"/>
        <path d="M33.699,8.588 C33.699,10.22 33.258,11.51 32.375,12.457 C31.586,13.3 30.605,13.721 29.434,13.721 C28.17,13.721 27.262,13.267 26.71,12.359 L26.67,12.359 L26.67,17.414 L24.538,17.414 L24.538,7.067 C24.538,6.041 24.511,4.988 24.459,3.908 L26.334,3.908 L26.453,5.429 L26.493,5.429 C27.203,4.283 28.282,3.711 29.731,3.711 C30.862,3.711 31.807,4.158 32.565,5.053 C33.32,5.949 33.699,7.127 33.699,8.588 L33.699,8.588 Z M31.527,8.666 C31.527,7.732 31.316,6.962 30.894,6.356 C30.433,5.724 29.816,5.408 29.039,5.408 C28.512,5.408 28.035,5.584 27.607,5.931 C27.179,6.281 26.9,6.738 26.769,7.304 C26.704,7.568 26.67,7.784 26.67,7.954 L26.67,9.554 C26.67,10.252 26.884,10.841 27.31,11.322 C27.738,11.802 28.294,12.043 28.98,12.043 C29.783,12.043 30.408,11.733 30.855,11.115 C31.303,10.496 31.527,9.68 31.527,8.666 L31.527,8.666 Z"/>
        <path d="M46.039,9.772 C46.039,10.904 45.646,11.825 44.857,12.536 C43.99,13.313 42.783,13.701 41.232,13.701 C39.8,13.701 38.652,13.425 37.783,12.872 L38.277,11.095 C39.213,11.661 40.24,11.945 41.359,11.945 C42.162,11.945 42.787,11.763 43.236,11.401 C43.683,11.039 43.906,10.553 43.906,9.947 C43.906,9.407 43.722,8.952 43.353,8.583 C42.986,8.214 42.373,7.871 41.517,7.554 C39.187,6.685 38.023,5.412 38.023,3.738 C38.023,2.644 38.431,1.747 39.248,1.049 C40.062,0.35 41.148,0.001 42.506,0.001 C43.717,0.001 44.723,0.212 45.526,0.633 L44.993,2.371 C44.243,1.963 43.395,1.759 42.446,1.759 C41.696,1.759 41.11,1.944 40.69,2.312 C40.335,2.641 40.157,3.042 40.157,3.517 C40.157,4.043 40.36,4.478 40.768,4.82 C41.123,5.136 41.768,5.478 42.704,5.847 C43.849,6.308 44.69,6.847 45.231,7.465 C45.77,8.081 46.039,8.852 46.039,9.772 L46.039,9.772 Z"/>
        <path d="M53.088,5.508 L50.738,5.508 L50.738,10.167 C50.738,11.352 51.152,11.944 51.982,11.944 C52.363,11.944 52.679,11.911 52.929,11.845 L52.988,13.464 C52.568,13.621 52.015,13.7 51.33,13.7 C50.488,13.7 49.83,13.443 49.355,12.93 C48.882,12.416 48.644,11.554 48.644,10.343 L48.644,5.506 L47.244,5.506 L47.244,3.906 L48.644,3.906 L48.644,2.149 L50.738,1.517 L50.738,3.906 L53.088,3.906 L53.088,5.508 L53.088,5.508 Z"/>
        <path d="M63.691,8.627 C63.691,10.102 63.269,11.313 62.427,12.26 C61.544,13.235 60.372,13.721 58.911,13.721 C57.503,13.721 56.382,13.254 55.546,12.32 C54.71,11.386 54.292,10.207 54.292,8.786 C54.292,7.299 54.722,6.081 55.585,5.134 C56.446,4.186 57.608,3.712 59.069,3.712 C60.477,3.712 61.61,4.179 62.465,5.114 C63.283,6.021 63.691,7.192 63.691,8.627 L63.691,8.627 Z M61.479,8.696 C61.479,7.811 61.29,7.052 60.907,6.419 C60.46,5.653 59.821,5.271 58.993,5.271 C58.136,5.271 57.485,5.654 57.038,6.419 C56.655,7.053 56.466,7.824 56.466,8.736 C56.466,9.621 56.655,10.38 57.038,11.012 C57.499,11.778 58.143,12.16 58.974,12.16 C59.788,12.16 60.427,11.77 60.888,10.992 C61.281,10.347 61.479,9.58 61.479,8.696 L61.479,8.696 Z"/>
        <path d="M70.621,5.783 C70.41,5.744 70.185,5.724 69.949,5.724 C69.199,5.724 68.619,6.007 68.211,6.574 C67.856,7.074 67.678,7.706 67.678,8.469 L67.678,13.504 L65.547,13.504 L65.567,6.93 C65.567,5.824 65.54,4.817 65.487,3.909 L67.344,3.909 L67.422,5.745 L67.481,5.745 C67.706,5.114 68.061,4.606 68.547,4.225 C69.022,3.882 69.535,3.711 70.088,3.711 C70.285,3.711 70.463,3.725 70.621,3.75 L70.621,5.783 L70.621,5.783 Z"/>
        <path d="M80.156,8.252 C80.156,8.634 80.131,8.956 80.078,9.219 L73.682,9.219 C73.707,10.167 74.016,10.892 74.61,11.392 C75.149,11.839 75.846,12.063 76.702,12.063 C77.649,12.063 78.513,11.912 79.29,11.609 L79.624,13.089 C78.716,13.485 77.644,13.682 76.407,13.682 C74.919,13.682 73.751,13.244 72.901,12.369 C72.053,11.494 71.628,10.319 71.628,8.845 C71.628,7.398 72.023,6.193 72.814,5.232 C73.642,4.206 74.761,3.693 76.169,3.693 C77.552,3.693 78.599,4.206 79.31,5.232 C79.873,6.047 80.156,7.055 80.156,8.252 L80.156,8.252 Z M78.123,7.699 C78.137,7.067 77.998,6.521 77.709,6.06 C77.34,5.467 76.773,5.171 76.01,5.171 C75.313,5.171 74.746,5.46 74.313,6.04 C73.958,6.501 73.747,7.054 73.682,7.698 L78.123,7.698 L78.123,7.699 Z"/>
    </g>
    <g fill="#000000" transform="translate(43.000000, 6.000000)">
        <path d="M6.05,4.009 C6.05,5.186 5.697,6.072 4.992,6.667 C4.339,7.216 3.411,7.491 2.209,7.491 C1.613,7.491 1.103,7.465 0.676,7.413 L0.676,0.982 C1.233,0.892 1.833,0.846 2.481,0.846 C3.626,0.846 4.489,1.095 5.071,1.593 C5.723,2.156 6.05,2.961 6.05,4.009 L6.05,4.009 Z M4.945,4.038 C4.945,3.275 4.743,2.69 4.339,2.282 C3.935,1.875 3.345,1.671 2.568,1.671 C2.238,1.671 1.957,1.693 1.724,1.739 L1.724,6.628 C1.853,6.648 2.089,6.657 2.432,6.657 C3.234,6.657 3.853,6.434 4.289,5.988 C4.725,5.542 4.945,4.892 4.945,4.038 L4.945,4.038 Z"/>
        <path d="M11.909,5.037 C11.909,5.762 11.702,6.356 11.288,6.822 C10.854,7.301 10.279,7.54 9.561,7.54 C8.869,7.54 8.318,7.311 7.907,6.851 C7.497,6.392 7.292,5.813 7.292,5.115 C7.292,4.385 7.503,3.786 7.927,3.321 C8.351,2.856 8.921,2.623 9.639,2.623 C10.331,2.623 10.887,2.852 11.308,3.311 C11.708,3.757 11.909,4.333 11.909,5.037 L11.909,5.037 Z M10.822,5.071 C10.822,4.636 10.728,4.263 10.541,3.952 C10.321,3.576 10.008,3.388 9.601,3.388 C9.18,3.388 8.86,3.576 8.64,3.952 C8.452,4.263 8.359,4.642 8.359,5.09 C8.359,5.525 8.453,5.898 8.64,6.209 C8.867,6.585 9.183,6.773 9.591,6.773 C9.991,6.773 10.305,6.582 10.531,6.199 C10.725,5.882 10.822,5.506 10.822,5.071 L10.822,5.071 Z"/>
        <path d="M19.765,2.719 L18.29,7.433 L17.33,7.433 L16.719,5.386 C16.564,4.875 16.438,4.367 16.34,3.863 L16.321,3.863 C16.23,4.381 16.104,4.888 15.942,5.386 L15.293,7.433 L14.322,7.433 L12.935,2.719 L14.012,2.719 L14.545,4.96 C14.674,5.49 14.78,5.995 14.865,6.473 L14.884,6.473 C14.962,6.079 15.091,5.577 15.273,4.97 L15.942,2.72 L16.796,2.72 L17.437,4.922 C17.592,5.459 17.718,5.976 17.815,6.474 L17.844,6.474 C17.915,5.989 18.022,5.472 18.164,4.922 L18.736,2.72 L19.765,2.72 L19.765,2.719 Z"/>
        <path d="M25.198,7.433 L24.15,7.433 L24.15,4.733 C24.15,3.901 23.834,3.485 23.2,3.485 C22.889,3.485 22.638,3.599 22.443,3.828 C22.25,4.057 22.152,4.327 22.152,4.636 L22.152,7.432 L21.104,7.432 L21.104,4.066 C21.104,3.652 21.091,3.203 21.066,2.717 L21.987,2.717 L22.036,3.454 L22.065,3.454 C22.187,3.225 22.369,3.036 22.608,2.885 C22.892,2.709 23.21,2.62 23.558,2.62 C23.998,2.62 24.364,2.762 24.655,3.047 C25.017,3.396 25.198,3.917 25.198,4.609 L25.198,7.433 L25.198,7.433 Z"/>
        <path d="M28.088,7.433 L27.041,7.433 L27.041,0.556 L28.088,0.556 L28.088,7.433 L28.088,7.433 Z"/>
        <path d="M34.258,5.037 C34.258,5.762 34.051,6.356 33.637,6.822 C33.203,7.301 32.627,7.54 31.91,7.54 C31.217,7.54 30.666,7.311 30.256,6.851 C29.846,6.392 29.641,5.813 29.641,5.115 C29.641,4.385 29.852,3.786 30.276,3.321 C30.7,2.856 31.27,2.623 31.987,2.623 C32.68,2.623 33.235,2.852 33.657,3.311 C34.057,3.757 34.258,4.333 34.258,5.037 L34.258,5.037 Z M33.17,5.071 C33.17,4.636 33.076,4.263 32.889,3.952 C32.67,3.576 32.356,3.388 31.95,3.388 C31.528,3.388 31.208,3.576 30.989,3.952 C30.801,4.263 30.708,4.642 30.708,5.09 C30.708,5.525 30.802,5.898 30.989,6.209 C31.216,6.585 31.532,6.773 31.94,6.773 C32.34,6.773 32.653,6.582 32.879,6.199 C33.074,5.882 33.17,5.506 33.17,5.071 L33.17,5.071 Z"/>
        <path d="M39.33,7.433 L38.389,7.433 L38.311,6.89 L38.282,6.89 C37.96,7.323 37.501,7.54 36.905,7.54 C36.46,7.54 36.1,7.397 35.829,7.113 C35.583,6.855 35.46,6.534 35.46,6.153 C35.46,5.577 35.7,5.138 36.183,4.834 C36.665,4.53 37.343,4.381 38.216,4.388 L38.216,4.3 C38.216,3.679 37.89,3.369 37.237,3.369 C36.772,3.369 36.362,3.486 36.008,3.718 L35.795,3.03 C36.233,2.759 36.774,2.623 37.412,2.623 C38.644,2.623 39.262,3.273 39.262,4.573 L39.262,6.309 C39.262,6.78 39.285,7.155 39.33,7.433 L39.33,7.433 Z M38.242,5.813 L38.242,5.086 C37.086,5.066 36.508,5.383 36.508,6.036 C36.508,6.282 36.574,6.466 36.709,6.589 C36.844,6.712 37.016,6.773 37.221,6.773 C37.451,6.773 37.666,6.7 37.862,6.555 C38.059,6.409 38.18,6.224 38.225,5.997 C38.236,5.946 38.242,5.884 38.242,5.813 L38.242,5.813 Z"/>
        <path d="M45.285,7.433 L44.355,7.433 L44.306,6.676 L44.277,6.676 C43.98,7.252 43.474,7.54 42.763,7.54 C42.195,7.54 41.722,7.317 41.347,6.871 C40.972,6.425 40.785,5.846 40.785,5.135 C40.785,4.372 40.988,3.754 41.396,3.282 C41.791,2.842 42.275,2.622 42.851,2.622 C43.484,2.622 43.927,2.835 44.179,3.262 L44.199,3.262 L44.199,0.556 L45.248,0.556 L45.248,6.163 C45.248,6.622 45.26,7.045 45.285,7.433 L45.285,7.433 Z M44.199,5.445 L44.199,4.659 C44.199,4.523 44.189,4.413 44.17,4.329 C44.111,4.077 43.984,3.865 43.791,3.694 C43.596,3.523 43.361,3.437 43.09,3.437 C42.699,3.437 42.393,3.592 42.168,3.903 C41.945,4.214 41.832,4.611 41.832,5.096 C41.832,5.562 41.939,5.94 42.154,6.231 C42.381,6.541 42.687,6.696 43.07,6.696 C43.414,6.696 43.689,6.567 43.898,6.308 C44.1,6.069 44.199,5.781 44.199,5.445 L44.199,5.445 Z"/>
        <path d="M54.248,5.037 C54.248,5.762 54.041,6.356 53.627,6.822 C53.193,7.301 52.619,7.54 51.9,7.54 C51.209,7.54 50.658,7.311 50.246,6.851 C49.836,6.392 49.631,5.813 49.631,5.115 C49.631,4.385 49.842,3.786 50.266,3.321 C50.69,2.856 51.26,2.623 51.979,2.623 C52.67,2.623 53.227,2.852 53.647,3.311 C54.047,3.757 54.248,4.333 54.248,5.037 L54.248,5.037 Z M53.162,5.071 C53.162,4.636 53.068,4.263 52.881,3.952 C52.66,3.576 52.348,3.388 51.94,3.388 C51.52,3.388 51.2,3.576 50.979,3.952 C50.791,4.263 50.698,4.642 50.698,5.09 C50.698,5.525 50.792,5.898 50.979,6.209 C51.206,6.585 51.522,6.773 51.93,6.773 C52.33,6.773 52.645,6.582 52.871,6.199 C53.064,5.882 53.162,5.506 53.162,5.071 L53.162,5.071 Z"/>
        <path d="M59.883,7.433 L58.836,7.433 L58.836,4.733 C58.836,3.901 58.52,3.485 57.885,3.485 C57.574,3.485 57.323,3.599 57.129,3.828 C56.935,4.057 56.838,4.327 56.838,4.636 L56.838,7.432 L55.789,7.432 L55.789,4.066 C55.789,3.652 55.777,3.203 55.752,2.717 L56.672,2.717 L56.721,3.454 L56.75,3.454 C56.873,3.225 57.055,3.036 57.293,2.885 C57.578,2.709 57.895,2.62 58.244,2.62 C58.683,2.62 59.049,2.762 59.34,3.047 C59.703,3.396 59.883,3.917 59.883,4.609 L59.883,7.433 L59.883,7.433 Z"/>
        <path d="M66.936,3.504 L65.782,3.504 L65.782,5.794 C65.782,6.376 65.987,6.667 66.393,6.667 C66.581,6.667 66.737,6.651 66.86,6.618 L66.887,7.413 C66.68,7.491 66.408,7.53 66.073,7.53 C65.659,7.53 65.337,7.404 65.104,7.152 C64.87,6.9 64.754,6.476 64.754,5.881 L64.754,3.504 L64.065,3.504 L64.065,2.719 L64.754,2.719 L64.754,1.855 L65.781,1.545 L65.781,2.718 L66.935,2.718 L66.935,3.504 L66.936,3.504 Z"/>
        <path d="M72.484,7.433 L71.435,7.433 L71.435,4.753 C71.435,3.908 71.119,3.485 70.486,3.485 C70,3.485 69.668,3.73 69.486,4.22 C69.455,4.323 69.437,4.449 69.437,4.597 L69.437,7.432 L68.39,7.432 L68.39,0.556 L69.437,0.556 L69.437,3.397 L69.457,3.397 C69.787,2.88 70.26,2.622 70.873,2.622 C71.307,2.622 71.666,2.764 71.951,3.049 C72.306,3.404 72.484,3.932 72.484,4.63 L72.484,7.433 L72.484,7.433 Z"/>
        <path d="M78.207,4.853 C78.207,5.041 78.193,5.199 78.168,5.328 L75.025,5.328 C75.039,5.794 75.189,6.149 75.48,6.395 C75.746,6.615 76.089,6.725 76.509,6.725 C76.974,6.725 77.398,6.651 77.78,6.502 L77.944,7.23 C77.497,7.424 76.971,7.521 76.362,7.521 C75.632,7.521 75.057,7.306 74.641,6.876 C74.223,6.446 74.016,5.869 74.016,5.145 C74.016,4.434 74.209,3.842 74.598,3.37 C75.004,2.866 75.553,2.614 76.246,2.614 C76.924,2.614 77.439,2.866 77.787,3.37 C78.068,3.77 78.207,4.265 78.207,4.853 L78.207,4.853 Z M77.207,4.582 C77.215,4.271 77.146,4.003 77.004,3.777 C76.822,3.486 76.545,3.34 76.17,3.34 C75.828,3.34 75.549,3.482 75.336,3.767 C75.162,3.994 75.059,4.265 75.025,4.582 L77.207,4.582 L77.207,4.582 Z"/>
    </g>
</svg>
